48x48/apps/chrome-bikioccmkafdpakkkcpdbppfkghcmihk-Default.svg

<svg height="48" width="48" xmlns="http://www.w3.org/2000/svg"><path d="m24 5a20 20 0 0 0 -20 20 20 20 0 0 0 1.559 7.693l-1.364 5.088a5.736 5.736 0 0 0 7.024 7.024l5.064-1.358a20 20 0 0 0 7.717 1.553 20 20 0 0 0 20-20 20 20 0 0 0 -20-20z" opacity=".2"/><circle cx="24" cy="24" fill="#3a76f0" r="20"/><path d="m15.151 12a5.736 5.736 0 0 0 -5.456 4.252l-5.5 20.53a5.736 5.736 0 0 0 7.024 7.023l20.531-5.5a5.736 5.736 0 0 0 2.571-9.594l-15.03-15.03a5.736 5.736 0 0 0 -4.141-1.681z" fill="#3a76f0"/><path d="m24 11a14 14 0 0 0 -14 14 14 14 0 0 0 1.88 6.977l-1.88 7.023 7.016-1.879a14 14 0 0 0 6.984 1.879 14 14 0 0 0 14-14 14 14 0 0 0 -14-14z" opacity=".2"/><g fill="#f4f4f7"><circle cx="24" cy="24" r="14"/><path d="m13.215 26 8.785 8.785-12 3.215z"/><path d="m22.217 6.09-.102.01-1.683.26-.098.019-.545.14.502 1.936.482-.125 1.602-.246 1.676-.086-.102-1.996zm3.502 1.092-.139.894 1.647.254 1.533.399.508.187.689-1.877-.57-.21-.094-.03-1.627-.42-.098-.02-1.683-.26-.102-.01h-.01zm-8.666.22-.09.04-1.486.716-.084.047-1.342.816 1.04 1.71 1.3-.793 1.414-.682.67-.246-.69-1.877zm13.965 2.25.591.286 1.332.812 1.258.943.487-.65.798-.877-.013-.012-.073-.06-1.31-.983-.078-.052-1.403-.854-.084-.047-.634-.306zm-19.698 1.6-.068.068-1.098 1.21-.06.072-.615.82 1.6 1.2.589-.788 1.033-1.133.955-.87-1.344-1.48zm24.205 1.697.807.885.918 1.225.563.923 1.708-1.04-.58-.952-.052-.078-.983-1.31-.06-.073-.84-.925zm-27.32 2.8" opacity=".5"/><path d="m24 4a20 20 0 0 0 -20 20 20 20 0 0 0 .021.404 20 20 0 0 1 19.979-19.404 20 20 0 0 1 19.979 19.582 20 20 0 0 0 .021-.582 20 20 0 0 0 -20-20zm-18.596 28.27-1.209 4.51a5.736 5.736 0 0 0 -.166 1.979 5.736 5.736 0 0 1 .166-.979l1.364-5.088a20 20 0 0 1 -.155-.423z" opacity=".2"/></g></svg>

<svg height="48" width="48" xmlns="http://www.w3.org/2000/svg">
    <path d="M24 5A20 20 0 0 0 4 25a20 20 0 0 0 1.559 7.693l-1.364 5.088a5.736 5.736 0 0 0 7.024 7.024l5.064-1.358A20 20 0 0 0 24 45a20 20 0 0 0 20-20A20 20 0 0 0 24 5z" opacity=".2"/>
    <circle cx="24" cy="24" fill="#3a76f0" r="20"/>
    <path d="M15.151 12a5.736 5.736 0 0 0-5.456 4.252l-5.5 20.53a5.736 5.736 0 0 0 7.024 7.023l20.531-5.5a5.736 5.736 0 0 0 2.571-9.594l-15.03-15.03A5.736 5.736 0 0 0 15.15 12z" fill="#3a76f0"/>
    <path d="M24 11a14 14 0 0 0-14 14 14 14 0 0 0 1.88 6.977L10 39l7.016-1.879A14 14 0 0 0 24 39a14 14 0 0 0 14-14 14 14 0 0 0-14-14z" opacity=".2"/>
    <g fill="#f4f4f7">
        <circle cx="24" cy="24" r="14"/>
        <path d="M13.215 26 22 34.785 10 38z"/>
        <path d="m22.217 6.09-.102.01-1.683.26-.098.019-.545.14.502 1.936.482-.125 1.602-.246 1.676-.086-.102-1.996zm3.502 1.092-.139.894 1.647.254 1.533.399.508.187.689-1.877-.57-.21-.094-.03-1.627-.42-.098-.02-1.683-.26-.102-.01h-.01zm-8.666.22-.09.04-1.486.716-.084.047-1.342.816 1.04 1.71 1.3-.793 1.414-.682.67-.246-.69-1.877zm13.965 2.25.591.286 1.332.812 1.258.943.487-.65.798-.877-.013-.012-.073-.06-1.31-.983-.078-.052-1.403-.854-.084-.047-.634-.306zm-19.698 1.6-.068.068-1.098 1.21-.06.072-.615.82 1.6 1.2.589-.788 1.033-1.133.955-.87-1.344-1.48zm24.205 1.697.807.885.918 1.225.563.923 1.708-1.04-.58-.952-.052-.078-.983-1.31-.06-.073-.84-.925zm-27.32 2.8" opacity=".5"/>
        <path d="M24 4A20 20 0 0 0 4 24a20 20 0 0 0 .021.404A20 20 0 0 1 24 5a20 20 0 0 1 19.979 19.582A20 20 0 0 0 44 24 20 20 0 0 0 24 4zM5.404 32.27l-1.209 4.51a5.736 5.736 0 0 0-.166 1.979 5.736 5.736 0 0 1 .166-.979l1.364-5.088a20 20 0 0 1-.155-.423z" opacity=".2"/>
    </g>
</svg>
